X: 511
%
U:~=!turn!
T: Neil Gow's Wife
C:Duncan McIntyre
O:Scotland
B:Keith Norman MacDonald : "The Skye collection of the best reels & strathspeys extant" : 1887
Z:Ralph Palmer
R:Strathspey
M:C
L:1/8
K:G aeolian
d | B<G~G>B A<F~F>A | B<GG>A {/c}B>AB>g | B<G~G>B A<F~F>A | B<B{/d}c>B FBB :|
d | B<Bd>B f>Bd>B | F<FA>F c>FA<c | B<Bd>B f>Bd<f | g<gb>g d<gg>b |
f<d~d>f | e>c~c>e | d<BB>d {/c}B>AB>F | G<G B<B c<c {Bc}d>c | B>G B/A/G/^F/ DGG |]


